X: 1
T: Paddy Ryan's Nightmare
M: 4/4
L: 1/8
R: reel
K: Gmaj
|: GE|DG ~G2 B z AF|DGGF GDB,E| DGGF GABc|df {ef}g2 fdcA|
BGGA BGAF|DGGF GDB,G,|A,B,CD EFGB|cAFA G2:|
|:zB|dg ~g2 dgBg|~g2 bg agfg|ea ~a2 caea|az bg agfe|
dg ~g2 dgBg|g2 bg agfe|dega {a}bgdB| cAFA G2:|
